resources/haticons/SVG/lab.svg

<!-- Generated by IcoMoon.io -->
<svg version="1.1" xmlns="http://www.w3.org/2000/svg" width="24" height="24" viewBox="0 0 24 24">
<title>lab</title>
<path d="M22.413 18.855l-7.413-12.352v-5.003h0.75c0.413 0 0.75-0.337 0.75-0.75s-0.337-0.75-0.75-0.75h-7.5c-0.413 0-0.75 0.338-0.75 0.75s0.337 0.75 0.75 0.75h0.75v5.003l-7.413 12.352c-1.698 2.83-0.387 5.145 2.913 5.145h15c3.3 0 4.611-2.315 2.913-5.145zM5.649 15l4.851-8.084v-5.416h3v5.416l4.851 8.084h-12.701z"></path>
</svg>

<svg xmlns="http://www.w3.org/2000/svg" width="24" height="24"><path d="M22.413 18.855L15 6.503V1.5h.75c.413 0 .75-.337.75-.75S16.163 0 15.75 0h-7.5c-.413 0-.75.338-.75.75s.337.75.75.75H9v5.003L1.587 18.855C-.111 21.685 1.2 24 4.5 24h15c3.3 0 4.611-2.315 2.913-5.145zM5.649 15L10.5 6.916V1.5h3v5.416L18.351 15H5.65z"/></svg>
